X: 566
T: Absent-minded Man, The
R: jig
M: 6/8
K: Gmajor
G|d3- d>e=f|edc BAG|c2a B2g|aAA ABc|
d3- de=f|edc BAG|cBc Agf|gGG G2:|
|:G|dB/c/d/B/ GB/c/d/B/|dB/c/d/B/ GB/c/d/B/|cA/B/c/A/ FA/B/c/A/|cA/B/c/A/ FA/B/c/A/|
dcB edc|fed gfe|dcB Agf|gGG G2:|

